build/Karasa-Jaga/scalable/actions/view-filter-symbolic.svg

<svg height="16" width="16" xmlns="http://www.w3.org/2000/svg"><path d="m10 9v4h4v-4zm1 1h2v2h-2zm-1-7v4h4v-4zm1 1h2v2h-2zm-6 5v1h-4v-1zm0 3v1h-4v-1zm0-6v1h-4v-1zm0-3v1h-4v-1zm2-1h1v12h-1z" fill="#bebebe"/></svg>

<?xml version="1.0" encoding="UTF-8" standalone="no"?>
<!-- Created with Inkscape (http://www.inkscape.org/) -->

<svg
   xmlns:dc="http://purl.org/dc/elements/1.1/"
   xmlns:cc="http://creativecommons.org/ns#"
   xmlns:rdf="http://www.w3.org/1999/02/22-rdf-syntax-ns#"
   xmlns:svg="http://www.w3.org/2000/svg"
   xmlns="http://www.w3.org/2000/svg"
   xmlns:inkscape="http://www.inkscape.org/namespaces/inkscape"
   version="1.1"
   width="16"
   height="16"
   id="svg7384">
  <title
     id="title9167">Gnome Symbolic Icon Theme</title>
  <defs
     id="defs11" />
  <metadata
     id="metadata90">
    <rdf:RDF>
      <cc:Work
         rdf:about="">
        <dc:format>image/svg+xml</dc:format>
        <dc:type
           rdf:resource="http://purl.org/dc/dcmitype/StillImage" />
        <dc:title>Gnome Symbolic Icon Theme</dc:title>
      </cc:Work>
    </rdf:RDF>
  </metadata>
  <path
     d="m 10,9 0,4 4,0 0,-4 -4,0 z m 1,1 2,0 0,2 -2,0 0,-2 z m -1,-7 0,4 4,0 0,-4 -4,0 z m 1,1 2,0 0,2 -2,0 0,-2 z M 5,9 5,10 1,10 1,9 z m 0,3 0,1 -4,0 0,-1 z M 5,6 5,7 1,7 1,6 z M 5,3 5,4 1,4 1,3 z M 7,2 8,2 8,14 7,14 z"
     inkscape:connector-curvature="0"
     id="rect3055"
     style="color:#bebebe;fill:#bebebe;fill-opacity:1;fill-rule:nonzero;stroke:none;stroke-width:1;marker:none;visibility:visible;display:inline;overflow:visible;enable-background:accumulate" />
</svg>
